Obsidian/actions/22s/account-types-asset.svg

<svg height="22" width="22" xmlns="http://www.w3.org/2000/svg"><path d="m4.5 3c-.831 0-1.5.669-1.5 1.5v13c0 .831.669 1.5 1.5 1.5h13c.831 0 1.5-.669 1.5-1.5v-13c0-.831-.669-1.5-1.5-1.5zm3.0292969 2.1523438 9.3574221 5.8476562-9.3574221 5.847656-1.0585938-1.695312 6.6445309-4.152344-6.6445309-4.1523438z" fill="#bebebe"/></svg>

<svg xmlns="http://www.w3.org/2000/svg" width="22" height="22" version="1.1">
 <defs>
  <style id="current-color-scheme" type="text/css">
   .ColorScheme-Text { color:#bebebe; } .ColorScheme-Highlight { color:#4285f4; }
  </style>
 </defs>
 <path style="fill:currentColor" class="ColorScheme-Text" d="M 4.5 3 C 3.669 3 3 3.669 3 4.5 L 3 17.5 C 3 18.331 3.669 19 4.5 19 L 17.5 19 C 18.331 19 19 18.331 19 17.5 L 19 4.5 C 19 3.669 18.331 3 17.5 3 L 4.5 3 z M 7.5292969 5.1523438 L 16.886719 11 L 7.5292969 16.847656 L 6.4707031 15.152344 L 13.115234 11 L 6.4707031 6.8476562 L 7.5292969 5.1523438 z"/>
</svg>
